package/converter/svg/thin/arrow-up-right.svg

<svg xmlns="http://www.w3.org/2000/svg" viewBox="0 0 384 512"><!-- Font Awesome Pro 6.0.0-alpha2 by @fontawesome - https://fontawesome.com License - https://fontawesome.com/license (Commercial License) --><path d="M344.001 352C339.581 352 336.002 348.42 336.002 344.001V123.312L45.655 413.659C42.539 416.775 37.468 416.786 34.341 413.659S31.225 405.461 34.341 402.345L324.688 111.998H103.999C99.58 111.998 96 108.419 96 103.999S99.58 96 103.999 96H344.001C348.42 96 352 99.58 352 103.999V344.001C352 348.423 348.423 352 344.001 352Z"/></svg>

<svg xmlns="http://www.w3.org/2000/svg" viewBox="0 0 384 512"><!--! Font Awesome Pro 6.6.0 by @fontawesome - https://fontawesome.com License - https://fontawesome.com/license (Commercial License) Copyright 2024 Fonticons, Inc. --><path d="M344 96c4.4 0 8 3.6 8 8l0 240c0 4.4-3.6 8-8 8s-8-3.6-8-8l0-220.7L45.7 413.7c-3.1 3.1-8.2 3.1-11.3 0s-3.1-8.2 0-11.3L324.7 112 104 112c-4.4 0-8-3.6-8-8s3.6-8 8-8l240 0z"/></svg>
